gtk-icons/Papirus-GTK/22x22/panel/network-wireless-secure-signal-ok.svg

<?xml version="1.0" encoding="UTF-8" standalone="no"?>
<!-- Created with Inkscape (http://www.inkscape.org/) -->

<svg
   xmlns:dc="http://purl.org/dc/elements/1.1/"
   xmlns:cc="http://creativecommons.org/ns#"
   xmlns:rdf="http://www.w3.org/1999/02/22-rdf-syntax-ns#"
   xmlns:svg="http://www.w3.org/2000/svg"
   xmlns="http://www.w3.org/2000/svg"
   xmlns:xlink="http://www.w3.org/1999/xlink"
   xmlns:sodipodi="http://sodipodi.sourceforge.net/DTD/sodipodi-0.dtd"
   xmlns:inkscape="http://www.inkscape.org/namespaces/inkscape"
   sodipodi:docname="network-wireless-secure-signal-ok.svg"
   height="22"
   id="svg6530"
   version="1.1"
   inkscape:version="0.91 r"
   viewBox="0 0 22 22"
   width="22">
  <defs
     id="defs6532">
    <linearGradient
       id="linearGradient4947">
      <stop
         id="stop4949"
         offset="0"
         style="stop-color:#dbdee0;stop-opacity:1" />
      <stop
         id="stop4951"
         offset="1"
         style="stop-color:#dbdee0;stop-opacity:0" />
    </linearGradient>
    <linearGradient
       inkscape:collect="always"
       gradientTransform="translate(448,368)"
       gradientUnits="userSpaceOnUse"
       xlink:href="#linearGradient4947"
       id="linearGradient3780"
       x1="12"
       x2="23"
       y1="6"
       y2="10" />
    <linearGradient
       id="linearGradient3768">
      <stop
         id="stop3770"
         offset="0"
         style="stop-color:#dbdee0;stop-opacity:1" />
      <stop
         id="stop3772"
         offset="1"
         style="stop-color:#dbdee0;stop-opacity:0" />
    </linearGradient>
    <linearGradient
       inkscape:collect="always"
       gradientTransform="matrix(-1,0,0,1,471.875,367.875)"
       gradientUnits="userSpaceOnUse"
       xlink:href="#linearGradient3768"
       id="linearGradient3787"
       x1="5.875"
       x2="3.875"
       y1="31.125"
       y2="4.125" />
    <linearGradient
       inkscape:collect="always"
       gradientTransform="matrix(0.8660254,0.5,-0.5,0.8660254,455.6077,363.6077)"
       gradientUnits="userSpaceOnUse"
       xlink:href="#linearGradient4947"
       id="linearGradient4963"
       x1="12"
       x2="23"
       y1="6"
       y2="10" />
    <linearGradient
       inkscape:collect="always"
       gradientTransform="matrix(-0.8660254,-0.5,-0.5,0.8660254,476.34655,375.43694)"
       gradientUnits="userSpaceOnUse"
       xlink:href="#linearGradient3768"
       id="linearGradient4965"
       x1="5.875"
       x2="3.875"
       y1="31.125"
       y2="4.125" />
    <linearGradient
       inkscape:collect="always"
       gradientTransform="matrix(0.5,0.8660254,-0.8660254,0.5,464.39231,363.6077)"
       gradientUnits="userSpaceOnUse"
       xlink:href="#linearGradient4947"
       id="linearGradient4977"
       x1="12"
       x2="23"
       y1="6"
       y2="10" />
    <linearGradient
       inkscape:collect="always"
       gradientTransform="matrix(-0.5,-0.8660254,-0.8660254,0.5,476.43806,384.22155)"
       gradientUnits="userSpaceOnUse"
       xlink:href="#linearGradient3768"
       id="linearGradient4979"
       x1="5.875"
       x2="3.875"
       y1="31.125"
       y2="4.125" />
    <linearGradient
       inkscape:collect="always"
       gradientTransform="matrix(0,1,-1,0,472,368)"
       gradientUnits="userSpaceOnUse"
       xlink:href="#linearGradient4947"
       id="linearGradient4991"
       x1="12"
       x2="23"
       y1="6"
       y2="10" />
    <linearGradient
       inkscape:collect="always"
       gradientTransform="matrix(0,-1,-1,0,472.125,391.875)"
       gradientUnits="userSpaceOnUse"
       xlink:href="#linearGradient3768"
       id="linearGradient4993"
       x1="5.875"
       x2="3.875"
       y1="31.125"
       y2="4.125" />
    <linearGradient
       inkscape:collect="always"
       gradientTransform="matrix(-0.5,0.8660254,-0.8660254,-0.5,476.3923,375.6077)"
       gradientUnits="userSpaceOnUse"
       xlink:href="#linearGradient4947"
       id="linearGradient5061"
       x1="12"
       x2="23"
       y1="6"
       y2="10" />
    <linearGradient
       inkscape:collect="always"
       gradientTransform="matrix(0.5,-0.8660254,-0.8660254,-0.5,464.56305,396.34656)"
       gradientUnits="userSpaceOnUse"
       xlink:href="#linearGradient3768"
       id="linearGradient5063"
       x1="5.875"
       x2="3.875"
       y1="31.125"
       y2="4.125" />
    <linearGradient
       inkscape:collect="always"
       gradientTransform="matrix(-0.8660254,0.49999999,-0.49999999,-0.8660254,476.3923,384.39231)"
       gradientUnits="userSpaceOnUse"
       xlink:href="#linearGradient4947"
       id="linearGradient5084"
       x1="12"
       x2="23"
       y1="6"
       y2="10" />
    <linearGradient
       inkscape:collect="always"
       gradientTransform="matrix(0.8660254,-0.49999999,-0.49999999,-0.8660254,455.77844,396.43806)"
       gradientUnits="userSpaceOnUse"
       xlink:href="#linearGradient3768"
       id="linearGradient5086"
       x1="5.875"
       x2="3.875"
       y1="31.125"
       y2="4.125" />
    <linearGradient
       inkscape:collect="always"
       gradientTransform="matrix(-0.99999999,0,0,-0.99999999,471.99999,392)"
       gradientUnits="userSpaceOnUse"
       xlink:href="#linearGradient4947"
       id="linearGradient5128"
       x1="12"
       x2="23"
       y1="6"
       y2="10" />
    <linearGradient
       inkscape:collect="always"
       gradientTransform="matrix(0.99999999,0,0,-0.99999999,448.12499,392.125)"
       gradientUnits="userSpaceOnUse"
       xlink:href="#linearGradient3768"
       id="linearGradient5130"
       x1="5.875"
       x2="3.875"
       y1="31.125"
       y2="4.125" />
    <linearGradient
       inkscape:collect="always"
       gradientTransform="matrix(-0.8660254,-0.49999999,0.49999999,-0.8660254,464.3923,396.3923)"
       gradientUnits="userSpaceOnUse"
       xlink:href="#linearGradient4947"
       id="linearGradient5140"
       x1="12"
       x2="23"
       y1="6"
       y2="10" />
    <linearGradient
       inkscape:collect="always"
       gradientTransform="matrix(0.8660254,0.49999999,0.49999999,-0.8660254,443.65344,384.56305)"
       gradientUnits="userSpaceOnUse"
       xlink:href="#linearGradient3768"
       id="linearGradient5142"
       x1="5.875"
       x2="3.875"
       y1="31.125"
       y2="4.125" />
    <linearGradient
       inkscape:collect="always"
       gradientTransform="matrix(-0.5,-0.86602539,0.86602539,-0.5,455.60769,396.3923)"
       gradientUnits="userSpaceOnUse"
       xlink:href="#linearGradient4947"
       id="linearGradient5152"
       x1="12"
       x2="23"
       y1="6"
       y2="10" />
    <linearGradient
       inkscape:collect="always"
       gradientTransform="matrix(0.5,0.86602539,0.86602539,-0.5,443.56194,375.77844)"
       gradientUnits="userSpaceOnUse"
       xlink:href="#linearGradient3768"
       id="linearGradient5154"
       x1="5.875"
       x2="3.875"
       y1="31.125"
       y2="4.125" />
    <linearGradient
       inkscape:collect="always"
       gradientTransform="matrix(0,-0.99999999,0.99999999,0,448,392)"
       gradientUnits="userSpaceOnUse"
       xlink:href="#linearGradient4947"
       id="linearGradient5164"
       x1="12"
       x2="23"
       y1="6"
       y2="10" />
    <linearGradient
       inkscape:collect="always"
       gradientTransform="matrix(0,0.99999999,0.99999999,0,447.875,368.12499)"
       gradientUnits="userSpaceOnUse"
       xlink:href="#linearGradient3768"
       id="linearGradient5166"
       x1="5.875"
       x2="3.875"
       y1="31.125"
       y2="4.125" />
    <linearGradient
       inkscape:collect="always"
       gradientTransform="matrix(0.49999999,-0.8660254,0.8660254,0.49999999,443.6077,384.39231)"
       gradientUnits="userSpaceOnUse"
       xlink:href="#linearGradient4947"
       id="linearGradient5176"
       x1="12"
       x2="23"
       y1="6"
       y2="10" />
    <linearGradient
       inkscape:collect="always"
       gradientTransform="matrix(-0.49999999,0.8660254,0.8660254,0.49999999,455.43695,363.65345)"
       gradientUnits="userSpaceOnUse"
       xlink:href="#linearGradient3768"
       id="linearGradient5178"
       x1="5.875"
       x2="3.875"
       y1="31.125"
       y2="4.125" />
    <linearGradient
       inkscape:collect="always"
       gradientTransform="matrix(0.86602539,-0.5,0.5,0.86602539,443.6077,375.6077)"
       gradientUnits="userSpaceOnUse"
       xlink:href="#linearGradient4947"
       id="linearGradient5188"
       x1="12"
       x2="23"
       y1="6"
       y2="10" />
    <linearGradient
       inkscape:collect="always"
       gradientTransform="matrix(-0.86602539,0.5,0.5,0.86602539,464.22156,363.56195)"
       gradientUnits="userSpaceOnUse"
       xlink:href="#linearGradient3768"
       id="linearGradient5190"
       x1="5.875"
       x2="3.875"
       y1="31.125"
       y2="4.125" />
  </defs>
  <sodipodi:namedview
     inkscape:bbox-nodes="true"
     bordercolor="#666666"
     borderopacity="1.0"
     inkscape:current-layer="layer1"
     inkscape:cx="17.012544"
     inkscape:cy="15.157439"
     inkscape:document-units="px"
     id="base"
     inkscape:object-nodes="true"
     inkscape:object-paths="true"
     pagecolor="#454d50"
     inkscape:pageopacity="0"
     inkscape:pageshadow="2"
     showgrid="false"
     inkscape:snap-bbox="true"
     inkscape:snap-bbox-edge-midpoints="true"
     inkscape:snap-bbox-midpoints="true"
     inkscape:snap-smooth-nodes="true"
     units="px"
     inkscape:window-height="876"
     inkscape:window-maximized="1"
     inkscape:window-width="1535"
     inkscape:window-x="65"
     inkscape:window-y="24"
     inkscape:zoom="12.239653">
    <inkscape:grid
       empspacing="4"
       id="grid8845"
       originx="-81.000207px"
       originy="-503.00169px"
       type="xygrid" />
  </sodipodi:namedview>
  <metadata
     id="metadata6535">
    <rdf:RDF>
      <cc:Work
         rdf:about="">
        <dc:format>image/svg+xml</dc:format>
        <dc:type
           rdf:resource="http://purl.org/dc/dcmitype/StillImage" />
        <dc:title />
      </cc:Work>
    </rdf:RDF>
  </metadata>
  <g
     inkscape:groupmode="layer"
     id="layer1"
     inkscape:label="panel"
     transform="translate(-81.000208,-527.36047)">
    <rect
       clip-path="none"
       height="22"
       id="rect10136"
       style="color:#bebebe;fill:none;stroke:none;stroke-width:1;marker:none;visibility:visible;display:inline;overflow:visible"
       transform="matrix(0,-1,1,0,0,0)"
       width="22"
       x="-549.36047"
       y="81.000198" />
    <path
       inkscape:connector-curvature="0"
       d="m 92,533.36216 c -3.03435,0 -5.76588,1.07815 -8.03125,2.75 l 8.03125,8.75 1,-1.10156 0,-1.39844 1.013672,0 c 0.01961,-1.63157 1.33745,-2.99245 2.976562,-2.99805 l 2.978516,-3.2832 C 97.71214,534.42762 95.01105,533.36216 92,533.36216 z"
       id="path10138"
       style="opacity:0.3;color:#ffffff;fill:#ffffff;fill-opacity:1;fill-rule:nonzero;stroke:none;stroke-width:1;marker:none;visibility:visible;display:inline;overflow:visible;enable-background:accumulate" />
    <path
       style="color:#ffffff;fill:#ffffff;fill-opacity:1;fill-rule:nonzero;stroke:none;stroke-width:1;marker:none;visibility:visible;display:inline;overflow:visible;enable-background:accumulate;opacity:1"
       d="m 91.986328,538.39341 c -1.706822,0 -3.243308,0.60647 -4.517578,1.54688 l 4.517578,4.92187 L 93,543.74497 l 0,-1.38281 1.013672,0 c 0.01508,-1.25484 0.799879,-2.34539 1.90625,-2.78711 -1.152821,-0.7192 -2.472865,-1.18164 -3.933594,-1.18164 z"
       id="path4172" />
    <path
       style="color:#ffffff;fill:#ffffff;fill-opacity:1;fill-rule:nonzero;stroke:none;stroke-width:1;marker:none;visibility:visible;display:inline;overflow:visible;enable-background:accumulate;opacity:1"
       d="M 16 13.001953 C 14.892 13.001953 14 13.912803 14 15.033203 L 14 16.001953 L 13 16.001953 L 13 17.001953 L 13 19.001953 L 13 20.001953 L 14 20.001953 L 18 20.001953 L 19 20.001953 L 19 19.001953 L 19 17.001953 L 19 16.001953 L 18 16.001953 L 18 15.033203 C 18 13.913303 17.108 13.001953 16 13.001953 z M 16 14.001953 C 16.554 14.001953 17 14.444353 17 15.001953 L 17 16.001953 L 15 16.001953 L 15 15.001953 C 15 14.444353 15.446 14.001953 16 14.001953 z "
       transform="translate(81.000208,527.36047)"
       id="path4170" />
  </g>
  <g
     inkscape:groupmode="layer"
     id="layer2"
     inkscape:label="animations"
     transform="translate(-81.000208,-74.998314)" />
</svg>

<?xml version="1.0" encoding="UTF-8" standalone="no"?>
<!-- Created with Inkscape (http://www.inkscape.org/) -->
<svg id="svg6530" xmlns:rdf="http://www.w3.org/1999/02/22-rdf-syntax-ns#" xmlns="http://www.w3.org/2000/svg" height="22" viewBox="0 0 22 22" width="22" version="1.1" xmlns:cc="http://creativecommons.org/ns#" xmlns:xlink="http://www.w3.org/1999/xlink" xmlns:dc="http://purl.org/dc/elements/1.1/">
 <metadata id="metadata6535">
  <rdf:RDF>
   <cc:Work rdf:about="">
    <dc:format>image/svg+xml</dc:format>
    <dc:type rdf:resource="http://purl.org/dc/dcmitype/StillImage"/>
    <dc:title/>
   </cc:Work>
  </rdf:RDF>
 </metadata>
 <g id="layer1" transform="translate(-81 -527.36)">
  <rect id="rect10136" style="color:#bebebe" transform="rotate(-90)" height="22" width="22" y="81" x="-549.36" fill="none"/>
  <path id="path10138" opacity=".3" style="color:#ffffff" d="m92 533.36c-3.0344 0-5.7659 1.0782-8.0312 2.75l8.0312 8.75 1-1.1016v-1.3984h1.0137c0.01961-1.6316 1.3374-2.9924 2.9766-2.998l2.9785-3.2832c-2.258-1.65-4.959-2.72-7.97-2.72z" fill="#fff"/>
  <path id="path4172" style="color:#ffffff" d="m91.986 538.39c-1.7068 0-3.2433 0.60647-4.5176 1.5469l4.5176 4.9219 1.014-1.12v-1.3828h1.0137c0.01508-1.2548 0.79988-2.3454 1.9062-2.7871-1.1528-0.7192-2.4729-1.1816-3.9336-1.1816z" fill="#fff"/>
  <path id="path4170" style="color:#ffffff" d="m16 13.002c-1.108 0-2 0.911-2 2.031v0.969h-1v1 2 1h1 4 1v-1-2-1h-1v-0.969c0-1.12-0.892-2.031-2-2.031zm0 1c0.554 0 1 0.442 1 1v1h-2v-1c0-0.558 0.446-1 1-1z" transform="translate(81 527.36)" fill="#fff"/>
 </g>
</svg>
